X:223
T:Untitled TS.223
M:C
L:1/8
Q:1/4=110
S:Thomas Sands’ MS,1810,Lincolnshire
R:strathspey
C:Labelled “5th” on MS page.
O:England;Lincolnshire
Z:vmp.Ruairidh Greig, 2011
K:F
A/B/|c>dcB c>dcB|A<cf>A “G2 added”G2{A/}GA/B/|c>dcA cdfa|”undotted in ms”f<dc>A {A}F2F:|
|:B|”all undotted in ms”A<cf<a “tr”f>afc|d<fc>A G2GB|A<cfc f>af>c|d<fc>AF2F c/B/|
A<cfa A<cfa|”tr”c2f/g/a gG GA/B/|”tr”c>dcd f>g {f/g/}af|f>dcAF2F|]

